X: 11232
T: Dusty Miller
R: three-two
M: 3/2
K: Gmajor
|:B3c d2B2 A2G2|F2A2- A2B2 c2A2|B3c d2B2 A2G2|D2G2- G2B2 A2G2:|
|:B3c d2e2 f2g2|a2A2- A2c2 B2A2|(3B2c2d2 (3e2f2g2 (3f2g2a2|g2G2- G2B2 A2G2:|

